arrow-bottom-right-bold-box-outline.svg

<svg fill="currentColor" viewBox="0 0 24 24"><path d="M16 16H8.9l2.1-2.1L7 10l2.8-2.8 4.1 3.9L16 8.9zM5 21h14c1.1 0 2-.9 2-2V5c0-1.1-.9-2-2-2H5c-1.1 0-2 .9-2 2v14c0 1.1.9 2 2 2M5 5h14v14H5z"/></svg>

<svg  viewBox="0 0 24 24" fill="currentColor"><path  d="M16 16H8.9L11 13.9L7 10L9.8 7.2L13.9 11.1L16 8.9V16M5 21H19C20.1 21 21 20.1 21 19V5C21 3.9 20.1 3 19 3H5C3.9 3 3 3.9 3 5V19C3 20.1 3.9 21 5 21M5 5H19V19H5V5Z"/></svg>
